X:21
T:Johnny from Gandsey (i.e. Guernsey)
R:Reel
H:A favourite reel: learned in my childhood, and committed to writing from
H:memory.
B:
M:C
L:1/8
K:C
"Gracefully"AG|E2 A2 AcBA|GEDE G2 G2|EA A2 cAGE|GAcd e2 a2|
agea aged|cAGA c3 d|efed dcAG|EDEG A3||
a|agea agea|age^f g2 gg|aged dcA^F|GAcd e2 a2|
agea aged|cAGA cBcd|efed dcAG|EDEG A2||
